X:1
T:Long temps y a
T:Robert Godard
T:Source : Livre XII de 30 chansons nouvelles à 4 parties---Paris---P.Attaingnant---1543. Editor : André Vierendeels (16/06/18) Notes : Original clefs : C1, C3, C4, F4 Original note values have been halved Editorial accidentals above the staff
T:Long temps y a
T:©
T:©
T:©
T:©
C:Robert Godard
Z:©
%%score [ 1 [ 2 3 ] 4 ]
L:1/8
Q:1/4=120
M:2/2
K:F
V:1 treble nm="Alto" snm="A"
V:2 treble-8 nm="Tenor 1" snm="T 1"
V:3 treble-8 nm="Tenor 2" snm="T 2"
V:4 bass nm="Bass" snm="B"
V:1
 z4 G4- | G4 F4 | G4 D4 | z2 A2 B2 B2 | A2 F2 G2 B2- | B2 AG F2 G2 |"^b" E4 D4- | D8 | z2 D2 F4 | %9
w: Long|_ temps|y a|que lan- gueur|et tri- stes- *||* se,|_|doeul et|
w: Et|_ ce|que plus|le tour- men-|t'et op- pres- *||* se,|_|cest ung|
 G4 A4 | z2 G2 F2 D2 | F3 G ABcB | AG G4 F2 |1 G8 :|2 G4 z2 B2 || B2 B2 A4 | z2 A2 A2 A2 | B4 G4 | %18
w: en- nuy|ont vi- si-|té _ _ _ _ _|_ _ _ mon|cueur,|gueur, mais|bon e- spoir|vou- lant es-|tre vain-|
w: de- sir|qui le tient|en _ _ _ _ _|_ _ vi- *||||||
 F4 z2 F2 | G4 E4 | D2 F2 F2 F2 | E2 D4 C2 |[M:2/4] D4 |:[M:2/2] z2 A2 A2 G2 | F2 F2 G2 E2 | %25
w: cueur, ne|peult souf-|frir qui tom- b'en|tel mar- ty-|re,|res- iou- y|toy, dict il, car|
w: |||||||
 F2 F2 E4- | E4 z2 G2 | G2 G2 D2 D2 | FEFG AGAB | cBAG F2 B2 | A2 G4 F2 | G8 :| %32
w: la ri- gueur,|_ te|don- ne- ra trop|plus _ _ _ _ _ _ _|_ _ _ _ _ que|ne de- si-|re.|
w: |||||||
V:2
 z8 | z4 d4- | d2 G2 B4 | A4 z2 d2 | f2 f2 e2 d2- | d2 c2 d4 | c2 B4 AG | A8 | z2 d2 d2 d2 | %9
w: |Long|_ temps y|a que|lan- gueur et tri-|* stes- *||se,|doeul et en-|
w: |Et|_ ce que|plus, et|ce que plus le|_ tour- men-|t'et op- pres- *|se,|cest ung de-|
 G4 z2 d2 | B2 c2 d4 | z2 A2 A2 f2 |"^b" e2 c2 d4 |1 z8 :|2 z2 d2 d4- || d2 e2 f4 | f4 f2 f2 | %17
w: nuy, doeul|et en- nuy|ont vi- si-|té mon cueur,||mais bon|_ e- spoir|vou- lant es-|
w: sir, cest|ung de- sir|qui le tient|en vi- gueur,|||||
 f4 e4 | d4 z2 d2 | B2 d2 c4 | z2 c2 c2 c2 | c2 B2 A4 |[M:2/4] A4 |:[M:2/2] z2 f2 f2 e2 | %24
w: tre vain-|cueur, ne|peilt souf- frir|qui tom- b'en|tel mar- ty-|re,|res- iou- y|
w: |||||||
 d2 d2 d2 c2 | c2 B2 c2 c2 | c2 c2 GFGA | B4 z2 d2 | d2 d2 A2 f2 | e2 f4 f2 |"^b" e2 c2 d4 | d8 :| %32
w: toy, dict il, car|la ri- gueur te|don- ne- ra _ _ _|_ te|don- ne- ra trop|plus que ne|de- * si-|re.|
w: ||||||||
V:3
 d4 B2 c2- | cBAG A4 | B4 z2 G2 | c2 c2 BABc | d4 c2 B2 | GFGA B4 | A2 G4 FE | F2 D2 F4 | %8
w: Long temps y|_ _ _ _ _|a que|lan- gueur et _ _ _|_ tri- stes-|||se, doeul et|
w: Et ce que|_ _ _ _ _|plus le|tour- men- t'et _ _ _|_ _ op-|pres- * * * *||se, cest ung|
 G4 A2 B2- | B2 AG F2 F2 | GFGA B2 B2 | A2 d2 c2 A2 | cBAG A2 A2 |1 G4 z4 :|2 G4 z2 G2 || B4 c4 | %16
w: en- nuy, _|_ _ _ _ doeul|et _ _ _ _ en-|nuy ont vi- si-|té _ _ _ _ mon|cueur,|gueur, mais|bon e-|
w: de- sir, _|_ _ _ _ cest|ung _ _ _ _ de-|sir qui le tient|en _ _ _ _ vi|_|||
 d4 z2 d2 | d2 d2 c2 B2- | B2 AG A4 | z2 B2 A2 G2 | F2 A2 A2 A2 | G2 F2 E4 |[M:2/4] D4 |: %23
w: spoir vou-|lant es- tre vain-|* * * cueur,|ne peult souf-|frir qui tom- b'en|tel mar- ty-|re,|
w: |||||||
[M:2/2] z2 d2 c2 B2 | A2 A2 B2 G2 | G2 F2 G4 | z8 | z2 G2 G2 G2 | D2 D2 FEFG | A2 A2 d2 d2 | %30
w: res- iou- y|toy, dict il, car|la ri- gueur,||te don- ne-|ra trop plus _ _ _|_ que ne de-|
w: |||||||
 cBAG A4 | G8 :| %32
w: si- * * * *|re.|
w: ||
V:4
 G,6 C,2 | _E,4 D,4 | G,8 | F,4 G,4 | D,4 z2 D,2 |"^b""^b" E,2 E,2 D,2 B,,2 | C,4 D,4 | %7
w: Long temps|y a,|long|temps y|a que|lan- gueur et tri-|stes- se,|
w: Et ce|que plus,|et|ce que|plus le|tour- men- t'et op-|pres- se,|
 z2 D,2 D,2 D,2 | G,,4 D,4 |"^b""^b" E,2 E,2 D,E,F,D, |"^b" E,4 D,2 G,2 | F,2 D,2 F,4 | %12
w: doeul et en-|nuy, doeul|et en- nuy _ _ _|_ ont vi-|si- té mon|
w: cest ung de-|sir, cest|ung de- sir _ _ _|_ _ qui|le tient en|
"^b" C,2 E,2 D,4 |1 G,,8 :|2 z2 G,2 B,3 A, || G,4 F,4 | z2 D,2 D,2 D,2 |"^#" B,,4 C,4 | %18
w: |cueur|mais bon _|e- spoir|vou- lant es-|tre vain-|
w: vi- * gueur,|_|||||
 D,4 z2 D,2 | G,,4 A,,4 | B,,2 F,,2 F,,2 F,,2 | C,2 D,2 A,,4 |[M:2/4] D,4 |: %23
w: cueur, ne|peult souf-|frir qui tom- b'en|tel mar- ty-|re,|
w: |||||
[M:2/2] z2 D,2 F,2 G,2 | D,2 D,2 G,2 C,2 | D,2 D,2 C,4 | z2 C,2 C,2 C,2 |"^#" G,,8 | %28
w: res- iou- y|toy, dict il, car|la ri- gueur,|te don- ne-|ra,|
w: |||||
 z2 D,2 D,2 D,2 | A,,2 D,2 D,2 B,,2 |"^b" C,2 E,2 D,4 | G,,8 :| %32
w: te don- ne-|ra trop plus que|ne de- si-|re.|
w: ||||

